48x48/devices/media-tape.svg

<svg xmlns="http://www.w3.org/2000/svg" width="48" height="48" version="1.1">
 <g transform="translate(0,-1074.5197)">
  <path style="fill:#17191e" transform="translate(0,1074.5197)" d="M 6.2773438 7 C 4.4617729 7 3 8.5794625 3 10.539062 L 3 37.460938 C 3 39.420537 4.4617728 41 6.2773438 41 L 41.722656 41 C 43.538227 41 45 39.420537 45 37.460938 L 45 10.539062 C 45 8.5794625 43.538227 7 41.722656 7 L 6.2773438 7 z M 15 19.5 A 4.5 4.5 0 0 1 19.5 24 A 4.5 4.5 0 0 1 15 28.5 A 4.5 4.5 0 0 1 10.5 24 A 4.5 4.5 0 0 1 15 19.5 z M 33 19.5 A 4.5 4.5 0 0 1 37.5 24 A 4.5 4.5 0 0 1 33 28.5 A 4.5 4.5 0 0 1 28.5 24 A 4.5 4.5 0 0 1 33 19.5 z"/>
  <path style="fill:#4f4f4f" d="m 6.9999981,1115.5197 3.9999989,-7 h 26.000001 l 3.999999,7 z"/>
  <path style="fill:#0071e2" transform="translate(0,1074.5197)" d="M 8.7050781 11 C 7.7599014 11 7 11.90535 7 13.03125 L 7 20 L 41 20 L 41 13.03125 C 41 11.90535 40.240095 11 39.294922 11 L 8.7050781 11 z"/>
  <path style="fill:#1eb29b" d="m 7,1094.5197 v 10.0879 c 0,1.0597 0.7599014,1.9121 1.7050781,1.9121 H 39.294922 c 0.945173,0 1.705078,-0.8524 1.705078,-1.9121 v -10.0879 z m 8,0.5 a 3.5,3.5 0 0 1 3.5,3.5 3.5,3.5 0 0 1 -3.5,3.5 3.5,3.5 0 0 1 -3.5,-3.5 3.5,3.5 0 0 1 3.5,-3.5 z m 18,0 a 3.5,3.5 0 0 1 3.5,3.5 3.5,3.5 0 0 1 -3.5,3.5 3.5,3.5 0 0 1 -3.5,-3.5 3.5,3.5 0 0 1 3.5,-3.5 z"/>
  <circle style="opacity:0.4" cx="15" cy="1111.52" r="2"/>
  <circle style="opacity:0.4" cx="33" cy="1111.52" r="2"/>
  <path style="fill:#17191e" d="m 14.818358,1094.5197 c -2.114944,0 -3.818359,1.7815 -3.818359,3.9941 v 0.012 c 0,2.2126 1.703415,3.9941 3.818359,3.9941 H 33.18164 c 2.114948,0 3.818359,-1.7815 3.818359,-3.9941 v -0.012 c 0,-2.2126 -1.703411,-3.9941 -3.818359,-3.9941 z m 0.181641,1 a 3,3 0 0 1 3,3 3,3 0 0 1 -3,3 3,3 0 0 1 -3,-3 3,3 0 0 1 3,-3 z m 18,0 a 3,3 0 0 1 3,3 3,3 0 0 1 -3,3 3,3 0 0 1 -3,-3 3,3 0 0 1 3,-3 z"/>
  <rect style="fill:#cccccc" width="10" height="4" x="19" y="1096.52"/>
  <path style="fill:#874f29" d="m 18.999998,1096.5196 v 4 h 3.650393 a 6.0000001,6.0000001 0 0 0 0.349606,-1.9999 6.0000001,6.0000001 0 0 0 -0.349606,-2.0001 z"/>
  <rect style="opacity:0.2" width="10" height="1" x="19" y="1096.52"/>
  <path style="opacity:0.2" d="m 15,1095.5197 a 3,3 0 0 0 -3,3 3,3 0 0 0 0.04297,0.4863 3,3 0 0 1 2.95703,-2.4863 3,3 0 0 1 2.957031,2.5137 3,3 0 0 0 0.04297,-0.5137 3,3 0 0 0 -3,-3 z m 18,0 a 3,3 0 0 0 -3,3 3,3 0 0 0 0.04297,0.4863 3,3 0 0 1 2.95703,-2.4863 3,3 0 0 1 2.957031,2.5137 3,3 0 0 0 0.04297,-0.5137 3,3 0 0 0 -3,-3 z"/>
  <path style="opacity:0.1;fill:#f4f4f7" transform="translate(0,1074.5197)" d="M 6.2773438 7 C 4.4617729 7 3 8.5794635 3 10.539062 L 3 11.539062 C 3 9.5794625 4.4617729 8 6.2773438 8 L 41.722656 8 C 43.538227 8 45 9.5794625 45 11.539062 L 45 10.539062 C 45 8.5794635 43.538227 7 41.722656 7 L 6.2773438 7 z"/>
  <path style="fill:#f4f4f7;opacity:0.1" transform="translate(0,1074.5197)" d="M 11 34 L 7 41 L 7.5722656 41 L 11 35 L 37 35 L 40.427734 41 L 41 41 L 37 34 L 11 34 z"/>
  <path style="opacity:0.2" transform="translate(0,1074.5197)" d="M 3 37.460938 L 3 38.460938 C 3 40.420537 4.4617727 42 6.2773438 42 L 41.722656 42 C 43.538227 42 45 40.420537 45 38.460938 L 45 37.460938 C 45 39.420537 43.538227 41 41.722656 41 L 6.2773438 41 C 4.4617727 41 3 39.420537 3 37.460938 z"/>
  <path style="opacity:0.2" transform="translate(0,1074.5197)" d="M 7 30.087891 L 7 31.087891 C 7 32.147591 7.7599014 33 8.7050781 33 L 39.294922 33 C 40.240095 33 41 32.147591 41 31.087891 L 41 30.087891 C 41 31.147591 40.240095 32 39.294922 32 L 8.7050781 32 C 7.7599014 32 7 31.147591 7 30.087891 z"/>
 </g>
</svg>

<svg xmlns="http://www.w3.org/2000/svg" width="48" height="48"><g transform="translate(0 -1074.52)"><path style="fill:#17191e" transform="translate(0 1074.52)" d="M6.277 7C4.462 7 3 8.58 3 10.54v26.92C3 39.42 4.462 41 6.277 41h35.446C43.538 41 45 39.42 45 37.46V10.54C45 8.58 43.538 7 41.723 7H6.277zM15 19.5a4.5 4.5 0 0 1 4.5 4.5 4.5 4.5 0 0 1-4.5 4.5 4.5 4.5 0 0 1-4.5-4.5 4.5 4.5 0 0 1 4.5-4.5zm18 0a4.5 4.5 0 0 1 4.5 4.5 4.5 4.5 0 0 1-4.5 4.5 4.5 4.5 0 0 1-4.5-4.5 4.5 4.5 0 0 1 4.5-4.5z"/><path style="fill:#4f4f4f" d="m7 1115.52 4-7h26l4 7z"/><path style="fill:#0071e2" transform="translate(0 1074.52)" d="M8.705 11C7.76 11 7 11.905 7 13.031V20h34v-6.969C41 11.905 40.24 11 39.295 11H8.705z"/><path style="fill:#1eb29b" d="M7 1094.52v10.088c0 1.06.76 1.912 1.705 1.912h30.59c.945 0 1.705-.853 1.705-1.912v-10.088zm8 .5a3.5 3.5 0 0 1 3.5 3.5 3.5 3.5 0 0 1-3.5 3.5 3.5 3.5 0 0 1-3.5-3.5 3.5 3.5 0 0 1 3.5-3.5zm18 0a3.5 3.5 0 0 1 3.5 3.5 3.5 3.5 0 0 1-3.5 3.5 3.5 3.5 0 0 1-3.5-3.5 3.5 3.5 0 0 1 3.5-3.5z"/><circle style="opacity:.4" cx="15" cy="1111.52" r="2"/><circle style="opacity:.4" cx="33" cy="1111.52" r="2"/><path style="fill:#17191e" d="M14.818 1094.52c-2.115 0-3.818 1.781-3.818 3.994v.012c0 2.212 1.703 3.994 3.818 3.994h18.364c2.115 0 3.818-1.782 3.818-3.994v-.012c0-2.213-1.703-3.994-3.818-3.994zm.182 1a3 3 0 0 1 3 3 3 3 0 0 1-3 3 3 3 0 0 1-3-3 3 3 0 0 1 3-3zm18 0a3 3 0 0 1 3 3 3 3 0 0 1-3 3 3 3 0 0 1-3-3 3 3 0 0 1 3-3z"/><path style="fill:#ccc" d="M19 1096.52h10v4H19z"/><path style="fill:#874f29" d="M19 1096.52v4h3.65a6 6 0 0 0 .35-2 6 6 0 0 0-.35-2z"/><path style="opacity:.2" d="M19 1096.52h10v1H19zM15 1095.52a3 3 0 0 0-3 3 3 3 0 0 0 .043.486A3 3 0 0 1 15 1096.52a3 3 0 0 1 2.957 2.513 3 3 0 0 0 .043-.513 3 3 0 0 0-3-3zm18 0a3 3 0 0 0-3 3 3 3 0 0 0 .043.486A3 3 0 0 1 33 1096.52a3 3 0 0 1 2.957 2.513 3 3 0 0 0 .043-.513 3 3 0 0 0-3-3z"/><path style="opacity:.1;fill:#f4f4f7" transform="translate(0 1074.52)" d="M6.277 7C4.462 7 3 8.58 3 10.54v1C3 9.58 4.462 8 6.277 8h35.446C43.538 8 45 9.58 45 11.54v-1C45 8.58 43.538 7 41.723 7H6.277z"/><path style="fill:#f4f4f7;opacity:.1" transform="translate(0 1074.52)" d="m11 34-4 7h.572L11 35h26l3.428 6H41l-4-7H11z"/><path style="opacity:.2" transform="translate(0 1074.52)" d="M3 37.46v1C3 40.42 4.462 42 6.277 42h35.446C43.538 42 45 40.42 45 38.46v-1c0 1.96-1.462 3.54-3.277 3.54H6.277C4.462 41 3 39.42 3 37.46zM7 30.088v1C7 32.148 7.76 33 8.705 33h30.59C40.24 33 41 32.148 41 31.088v-1c0 1.06-.76 1.912-1.705 1.912H8.705C7.76 32 7 31.148 7 30.088z"/></g></svg>
